X:21102 
T:KILKENNY HORNPIPE, The 
B:DMI.0835
Z:Nordberg/Black
R:hornpipe
N:DMI dotted rhythm removed
%Q:1/4=150
M:C|
L:1/8
K:G
dc|B2AB GAGE|D2G2 G2Bc|dBge dBGB|dcBc A2dc|
B2AB GAGE|D2G2 G2Bc|d2ge dcBA|G4-G2:|
de|fefg f2de|fefg f2AB|cBcd c2AB|cBcd cedc|
B2AB GAGE|D2G2 G2Bc|d2ge dcBA|G4-G2:|

%%%

